X:1
T:Fife Ness
T:Fife Ness
T:McGibbon c. 1800
C:McGibbon c. 1800
L:1/8
M:2/2
K:G
V:1 treble 
V:1
"D7" BA |"G" G4 G2 Bc | dBGB dBGB |"Am" A4 A2 gf |"D" edBd"C" e2 [cg]2 |"G" G4 G2 Bc | %6
"Em" dBGB"Bm" d3 B |"Am" A3 B"B7" GABA |"Em" G2"Am" E2-"Em" E2 ||"D7" dc |"G" B2 G4 dc | %11
"Em" B2 G4 ed |"Am" c2 A4 ed |"D7" c2 A4 Bc |"G" dBGB gBGB | dBGB"Bm" d3 B |"Am" ABcd"B7" BcAB | %17
"Em" G2"Am" E2-"Em" E2 |] %18

